packages/foundations/assets/icons/functional/images/accessibility/support_dog_32.svg

<svg width="32" height="32" viewBox="0 0 32 32" fill="none" xmlns="http://www.w3.org/2000/svg">
<g clip-path="url(#clip0_183_3611)">
<path fill-rule="evenodd" clip-rule="evenodd" d="M29.316 7.62335L23.968 5.84035L20.421 2.29335C20.2913 2.16322 20.1281 2.07147 19.9495 2.02824C19.7709 1.985 19.5839 1.99196 19.409 2.04835C19.2339 2.10416 19.0776 2.20729 18.9574 2.34635C18.8372 2.48542 18.7579 2.65499 18.728 2.83635L17.01 13.1433H16.902L5.548 2.27735C5.35638 2.09395 5.09976 1.99418 4.83458 2C4.5694 2.00581 4.3174 2.11673 4.134 2.30835C3.9506 2.49996 3.85084 2.75659 3.85665 3.02177C3.86246 3.28694 3.97338 3.53895 4.165 3.72235L14.008 13.1423H4.911C4.65 13.0943 4 12.5233 4 10.4283C4 10.1631 3.89464 9.90877 3.70711 9.72124C3.51957 9.5337 3.26522 9.42835 3 9.42835C2.73478 9.42835 2.48043 9.5337 2.29289 9.72124C2.10536 9.90877 2 10.1631 2 10.4283C2 13.2903 3.032 14.4113 3.857 14.8533V26.2133C3.85779 27.2173 4.2569 28.1799 4.96671 28.8899C5.67652 29.5999 6.63904 29.9993 7.643 30.0003C8.64678 29.9993 9.60915 29.6001 10.3189 28.8903C11.0287 28.1805 11.4279 27.2181 11.429 26.2143V23.0943C12.188 23.3603 13.158 23.6073 14.143 23.6073C15.128 23.6073 16.098 23.3603 16.857 23.0943V26.2143C16.8581 27.2181 17.2573 28.1805 17.9671 28.8903C18.6768 29.6001 19.6392 29.9993 20.643 30.0003C21.6468 29.9993 22.6092 29.6001 23.3189 28.8903C24.0287 28.1805 24.4279 27.2181 24.429 26.2143V14.2103C25.472 14.2033 27.011 13.9913 28.223 12.9783C29.402 11.9923 30 10.5083 30 8.57135C30.0001 8.36148 29.9341 8.15691 29.8113 7.98672C29.6885 7.81652 29.5152 7.68938 29.316 7.62335ZM10.914 20.6973C10.7617 20.6133 10.5901 20.5704 10.4162 20.5728C10.2423 20.5752 10.0719 20.6228 9.92201 20.711C9.77207 20.7992 9.64768 20.9249 9.56106 21.0757C9.47444 21.2266 9.42858 21.3974 9.428 21.5713V26.2143C9.428 27.2003 8.627 28.0003 7.642 28.0003C7.16849 27.9998 6.71452 27.8115 6.37969 27.4767C6.04487 27.1418 5.85653 26.6879 5.856 26.2143V15.1443H15.499V21.4143C15.0565 21.5349 14.6006 21.5997 14.142 21.6073C12.577 21.6073 10.93 20.7073 10.913 20.6983L10.914 20.6973ZM20.643 28.0003C20.1695 27.9998 19.7155 27.8115 19.3807 27.4767C19.0459 27.1418 18.8575 26.6879 18.857 26.2143V21.5713C18.8569 21.44 18.8309 21.31 18.7805 21.1887C18.7301 21.0675 18.6564 20.9573 18.5634 20.8645C18.4704 20.7718 18.3601 20.6982 18.2388 20.6481C18.1174 20.5979 17.9873 20.5722 17.856 20.5723C17.7338 20.575 17.6131 20.6001 17.5 20.6463V15.6083L22.429 17.5393V26.2143C22.429 27.1993 21.628 28.0003 20.643 28.0003ZM26.947 11.4383C25.686 12.5013 23.623 12.1633 23.605 12.1593C23.461 12.1336 23.3131 12.1398 23.1718 12.1774C23.0304 12.215 22.899 12.2832 22.7869 12.3771C22.6748 12.471 22.5846 12.5884 22.5228 12.721C22.4609 12.8536 22.4289 12.9981 22.429 13.1443V15.3943L18.894 14.0073L20.382 5.08235L22.722 7.42235C22.8319 7.53193 22.9657 7.61444 23.113 7.66335L27.963 9.28034C27.855 10.2373 27.514 10.9623 26.947 11.4383Z" fill="#1A1C1F"/>
</g>
<defs>
<clipPath id="clip0_183_3611">
<rect width="32" height="32" fill="white"/>
</clipPath>
</defs>
</svg>

<svg xmlns="http://www.w3.org/2000/svg" width="32" height="32" fill="none"><g clip-path="url(#a)"><path fill="#1A1C1F" fill-rule="evenodd" d="M29.316 7.623 23.968 5.84l-3.547-3.547a.997.997 0 0 0-1.464.053c-.12.14-.2.309-.229.49L17.01 13.143h-.108L5.548 2.277a1 1 0 1 0-1.383 1.445l9.843 9.42H4.911C4.65 13.094 4 12.523 4 10.428a1 1 0 0 0-2 0c0 2.862 1.032 3.983 1.857 4.425v11.36A3.79 3.79 0 0 0 7.643 30a3.79 3.79 0 0 0 3.786-3.786v-3.12c.759.266 1.729.513 2.714.513s1.955-.247 2.714-.513v3.12A3.79 3.79 0 0 0 20.643 30a3.79 3.79 0 0 0 3.786-3.786V14.21c1.043-.007 2.582-.219 3.794-1.232C29.402 11.992 30 10.508 30 8.571a1 1 0 0 0-.684-.948M10.914 20.697a1.002 1.002 0 0 0-1.486.874v4.643a1.787 1.787 0 0 1-3.572 0v-11.07h9.643v6.27c-.443.12-.898.186-1.357.193-1.565 0-3.212-.9-3.229-.909zM20.643 28a1.79 1.79 0 0 1-1.786-1.786v-4.643a1 1 0 0 0-1.001-.999 1 1 0 0 0-.356.074v-5.038l4.929 1.931v8.675c0 .985-.801 1.786-1.786 1.786m6.304-16.562c-1.261 1.063-3.324.725-3.342.721a1 1 0 0 0-1.176.985v2.25l-3.535-1.387 1.488-8.925 2.34 2.34a1 1 0 0 0 .391.241l4.85 1.617c-.108.957-.449 1.682-1.016 2.158" clip-rule="evenodd"/></g><defs><clipPath id="a"><path fill="#fff" d="M0 0h32v32H0z"/></clipPath></defs></svg>
